build/system/AtSolid.svg

<svg xmlns="http://www.w3.org/2000/svg" fill="none" viewBox="0 0 24 24" focusable="false"><path d="M0 0H24V24H0z"/><path fill="#74767B" fill-rule="evenodd" d="M12 3C7.02944 3 3 7.02944 3 12C3 16.9706 7.02944 21 12 21C16.9706 21 21 16.9706 21 12C21 7.02944 16.9706 3 12 3ZM12.0003 5.5C15.5899 5.50025 18.5 8.41076 18.5 12.0003C18.4999 12.6118 18.4144 13.2031 18.2561 13.7639C18.1335 14.2732 17.915 14.6692 17.6005 14.952C17.5275 15.0176 17.4502 15.0765 17.3686 15.1287C17.0509 15.3321 16.6681 15.4338 16.2202 15.4338C15.9568 15.4338 15.6632 15.3701 15.4344 15.2812C15.3043 15.2266 15.1836 15.1589 15.0724 15.0783C14.977 15.009 14.8885 14.9302 14.807 14.8418C14.7731 14.8051 14.7408 14.7672 14.7102 14.728C14.5841 14.5671 14.4784 14.3669 14.4058 14.1641C14.3288 14.2713 14.2458 14.3741 14.1569 14.4727C13.9378 14.7157 13.6944 14.9194 13.427 15.0839C13.323 15.1478 13.2154 15.2058 13.1041 15.2579C12.8851 15.3603 12.6604 15.4358 12.43 15.4842C12.2238 15.5275 12.0131 15.5491 11.7978 15.5491C11.5905 15.5491 11.387 15.5289 11.1879 15.4884C10.9509 15.4402 10.7198 15.3633 10.4944 15.2578C10.3855 15.2068 10.28 15.1501 10.178 15.0877C9.90822 14.9226 9.66277 14.7177 9.44168 14.473C9.34863 14.37 9.26205 14.2623 9.18201 14.1501C9.00239 13.8981 8.85553 13.6228 8.74143 13.3241C8.68356 13.1726 8.63552 13.0187 8.59736 12.8624C8.52351 12.5598 8.48658 12.2483 8.48658 11.9277C8.48658 11.6071 8.52352 11.2955 8.59738 10.993C8.63554 10.8367 8.68355 10.6828 8.74143 10.5313C8.85553 10.2326 9.00239 9.9573 9.18201 9.70534C9.26206 9.59306 9.34861 9.48542 9.44168 9.38242C9.66277 9.13771 9.90825 8.93279 10.1781 8.76771C10.28 8.70533 10.3855 8.64863 10.4944 8.59761C10.7198 8.49205 10.9511 8.41517 11.1881 8.36698C11.3872 8.32651 11.5905 8.30627 11.7978 8.30627C12.0051 8.30627 12.2084 8.32651 12.4075 8.36698C12.6446 8.41517 12.8758 8.49205 13.1012 8.59761C13.2101 8.64862 13.3157 8.70538 13.4176 8.76776C13.6376 8.90235 13.8414 9.0634 14.029 9.25091C14.3408 9.58113 14.6791 10.0712 14.8553 10.5295C15.0059 10.9211 15.1102 11.3677 15.1683 11.8691C15.2202 12.3179 15.2366 12.8257 15.2175 13.3925C15.2182 13.5658 15.2441 13.7237 15.2952 13.8664C15.3426 13.9988 15.4097 14.112 15.4963 14.206C15.5462 14.2601 15.6011 14.3066 15.6608 14.3456C15.8146 14.4458 16.0011 14.496 16.2202 14.496C16.5427 14.496 16.7946 14.4148 16.9735 14.2546C17.0833 14.1559 17.1736 14.0225 17.2446 13.8544C17.2811 13.7513 17.3147 13.6467 17.3452 13.5409C17.3536 13.5057 17.3678 13.4706 17.3751 13.4333C17.497 12.9762 17.5623 12.4959 17.5623 12.0003C17.5623 8.92871 15.072 6.43864 12.0003 6.43838C8.92855 6.43838 6.43838 8.92855 6.43838 12.0003C6.43859 15.072 8.92868 17.5623 12.0003 17.5623C12.6049 17.5623 13.1867 17.4653 13.7315 17.2867C14.0467 17.1833 14.3949 17.4041 14.3949 17.7359C14.3949 17.9207 14.2826 18.0882 14.1078 18.1483C13.4469 18.3753 12.7383 18.4999 12.0003 18.5C8.41074 18.5 5.50021 15.5899 5.5 12.0003C5.5 8.41061 8.41061 5.5 12.0003 5.5ZM13.3461 9.89466C13.3843 9.93196 13.4216 9.97078 13.4581 10.0111C13.5124 10.0713 13.5638 10.1337 13.6122 10.1982C13.7629 10.3993 13.8849 10.6219 13.9781 10.866C14.0156 10.964 14.0476 11.0635 14.0741 11.1643C14.1389 11.4103 14.1712 11.6647 14.1712 11.9277C14.1712 12.1969 14.1375 12.4571 14.0701 12.7082C14.0446 12.8035 14.0142 12.8974 13.9789 12.99C13.8845 13.2381 13.7605 13.4639 13.6069 13.6673C13.5608 13.7284 13.512 13.7875 13.4605 13.8446C13.2837 14.0406 13.0865 14.2006 12.8687 14.3246C12.8159 14.3546 12.7619 14.3826 12.7067 14.4084C12.5506 14.4814 12.3905 14.5348 12.2264 14.5684C12.0864 14.597 11.9436 14.6113 11.7978 14.6113C11.66 14.6113 11.5247 14.5984 11.392 14.5725C11.2212 14.5392 11.0546 14.4846 10.8922 14.4085C10.8391 14.3836 10.787 14.3568 10.7361 14.328C10.5159 14.2034 10.3163 14.0422 10.1375 13.8443C10.0832 13.7841 10.0318 13.7218 9.9834 13.6572C9.83271 13.4561 9.71075 13.2336 9.6175 12.9895C9.58006 12.8915 9.54803 12.7919 9.52147 12.691C9.45676 12.4451 9.4244 12.1907 9.4244 11.9277C9.4244 11.6647 9.45677 11.4103 9.5215 11.1643C9.54805 11.0634 9.58005 10.964 9.6175 10.866C9.71075 10.6219 9.83272 10.3993 9.98341 10.1982C10.0318 10.1336 10.0832 10.0713 10.1375 10.0111C10.3163 9.81325 10.5159 9.65196 10.7362 9.52738C10.7871 9.4986 10.8391 9.47178 10.8922 9.44691C11.0546 9.37085 11.2212 9.31617 11.3919 9.2829C11.5247 9.25703 11.66 9.24409 11.7978 9.24409C11.9356 9.24409 12.071 9.25704 12.2037 9.2829C12.3721 9.31572 12.5342 9.37391 12.6945 9.44835C12.9436 9.57112 13.1608 9.71989 13.3461 9.89466Z"/></svg>

<svg xmlns="http://www.w3.org/2000/svg" fill="none" viewBox="0 0 24 24" focusable="false"><path fill="none" d="M0 0h24v24H0z"/><path fill="#74767B" fill-rule="evenodd" d="M12 3c-4.98 0-9 4.02-9 9 0 4.97 4.02 9 9 9a9 9 0 0 0 9-9c0-4.98-4.03-9-9-9m0 2.5c3.58 0 6.5 2.91 6.5 6.5 0 .61-.09 1.2-.25 1.76-.12.51-.34.9-.65 1.19-.08.06-.15.12-.24.17-.31.21-.7.31-1.14.31-.27 0-.56-.06-.79-.15q-.195-.09-.36-.21c-.1-.07-.19-.14-.27-.23l-.09-.12c-.13-.16-.24-.36-.31-.56a3.533 3.533 0 0 1-.98.92c-.1.06-.21.12-.32.17-.22.11-.44.18-.67.23-.21.04-.42.06-.64.06-.2 0-.41-.02-.61-.06-.23-.04-.47-.12-.69-.23-.11-.05-.22-.1-.32-.17-.27-.16-.51-.37-.73-.61-.1-.1-.18-.21-.26-.32-.18-.26-.33-.53-.44-.83-.06-.15-.11-.31-.15-.46-.07-.31-.11-.62-.11-.94s.04-.63.11-.93c.04-.16.09-.31.15-.46.11-.3.26-.58.44-.83.08-.11.16-.22.26-.32.22-.25.46-.45.73-.62.11-.06.21-.12.32-.17.22-.1.46-.18.69-.23a3.2 3.2 0 0 1 1.22 0c.24.05.47.13.7.23.11.05.21.11.31.17.22.14.43.3.61.49.32.33.65.82.83 1.27.15.4.26.84.31 1.34.06.45.07.96.05 1.53 0 .17.03.33.08.47.05.13.11.25.2.34.05.06.11.1.17.14.15.1.34.15.56.15q.48 0 .75-.24c.11-.1.2-.23.27-.4.04-.1.07-.21.1-.31l.03-.11a5.563 5.563 0 0 0-5.37-7c-3.08 0-5.57 2.49-5.57 5.57a5.563 5.563 0 0 0 7.3 5.28c.31-.1.66.12.66.45 0 .19-.11.35-.29.41-.66.23-1.37.35-2.1.36a6.5 6.5 0 1 1 0-13m1.34 4.39c.04.04.08.08.11.12.06.06.11.12.16.18.15.2.27.43.36.67.04.1.07.2.1.3.06.25.1.5.1.76 0 .27-.04.53-.1.78-.03.1-.06.19-.1.29-.09.24-.21.47-.37.67-.04.06-.09.12-.14.18q-.27.3-.6.48c-.05.03-.1.06-.16.08-.15.08-.31.13-.48.16-.14.03-.28.05-.43.05-.13 0-.27-.02-.4-.04a2.3 2.3 0 0 1-.5-.17c-.06-.02-.11-.05-.16-.08q-.33-.18-.6-.48c-.05-.06-.1-.12-.15-.19-.15-.2-.27-.42-.37-.67-.03-.09-.07-.19-.09-.29-.07-.25-.1-.5-.1-.77 0-.26.03-.51.1-.76.02-.1.06-.2.09-.3.1-.24.22-.47.37-.67l.15-.18c.18-.2.38-.36.6-.49.05-.03.1-.05.16-.08a2.2 2.2 0 0 1 .9-.2 2.161 2.161 0 0 1 .9.2c.25.13.47.27.65.45"/></svg>
